Newaita-dark/apps/16/preferences-system-splash.svg

<svg height="16" viewBox="0 0 16 16" width="16" xmlns="http://www.w3.org/2000/svg" xmlns:xlink="http://www.w3.org/1999/xlink"><linearGradient id="a" gradientUnits="userSpaceOnUse" x1="7.607496" x2="7.607496" y1="14.0169675" y2="14.67848950002"><stop offset="0" stop-opacity=".27451"/><stop offset="1" stop-opacity="0"/></linearGradient><linearGradient id="b"><stop offset="0" stop-opacity=".313726"/><stop offset=".222222" stop-opacity=".27451"/><stop offset="1" stop-opacity="0"/></linearGradient><radialGradient id="c" cx="450.908936" cy="189.579361" gradientTransform="matrix(.00000009 -.0390662 -.0703192 -.00000005 26.726844 31.797666)" gradientUnits="userSpaceOnUse" r="21.166656" xlink:href="#b"/><radialGradient id="d" cx="450.908936" cy="189.579361" gradientTransform="matrix(-.00000009 .0390662 .0703192 .00000005 -10.850327 -3.763739)" gradientUnits="userSpaceOnUse" r="21.166656" xlink:href="#b"/><radialGradient id="e" cx="450.908936" cy="189.579361" gradientTransform="matrix(-.00000009 -.0390662 .0703192 -.00000005 -10.850327 31.797666)" gradientUnits="userSpaceOnUse" r="21.166656" xlink:href="#b"/><radialGradient id="f" cx="450.908936" cy="189.579361" gradientTransform="matrix(.00000009 .0390662 -.0703192 .00000005 26.726843 -3.76374)" gradientUnits="userSpaceOnUse" r="21.166656" xlink:href="#b"/><linearGradient id="g"><stop offset="0" stop-color="#b0bec5"/><stop offset="1" stop-color="#cfd8dc"/></linearGradient><linearGradient id="h" gradientTransform="matrix(.0360368 0 0 .0953132 -2.454603 15.588246)" gradientUnits="userSpaceOnUse" x1="306.752655" x2="305.954529" xlink:href="#g" y1="-16.485477" y2="-141.414581"/><linearGradient id="i" gradientUnits="userSpaceOnUse" x1="7.938262" x2="7.938262" y1="14.0169675" y2="2.1095745"><stop offset="0" stop-color="#5c6bc0"/><stop offset="1" stop-color="#7986cb"/></linearGradient><linearGradient id="j" gradientUnits="userSpaceOnUse" x1="5.2921728" x2="10.5843456" xlink:href="#g" y1="8.06326352992" y2="8.06326352992"/><path d="m2.316406 14.054688h11.246094v.625h-11.246094zm0 0" fill="url(#a)"/><path d="m13.5625 14.015625h1.320312v-.660156h-1.320312zm0 0" fill="url(#c)"/><path d="m2.316406 14.015625h-1.324218v.664063h1.324218zm0 0" fill="url(#d)"/><path d="m2.316406 14.015625h-1.324218v-.660156h1.324218zm0 0" fill="url(#e)"/><path d="m13.5625 14.015625h1.320312v.664063h-1.320312zm0 0" fill="url(#f)"/><path d="m1.652344 2.109375h12.570312c.367188 0 .660156.28125.660156.625v10.65625c0 .347656-.292968.625-.660156.625h-12.570312c-.363282 0-.660156-.277344-.660156-.625v-10.65625c0-.34375.296874-.625.660156-.625zm0 0" fill="url(#h)"/><path d="m1.984375 2.769531h11.90625c.183594 0 .332031.148438.332031.332031v9.921876c0 .183593-.148437.332031-.332031.332031h-11.90625c-.183594 0-.332031-.148438-.332031-.332031v-9.921876c0-.183593.148437-.332031.332031-.332031zm0 0" fill="url(#i)"/><path d="m1.652344 2.109375c-.363282 0-.660156.277344-.660156.625v.164063c0-.34375.296874-.625.660156-.625h12.570312c.367188 0 .660156.28125.660156.625v-.164063c0-.347656-.292968-.625-.660156-.625zm0 0" fill="#fff" fill-opacity=".588235"/><path d="m1.652344 14.023438c-.363282 0-.660156-.28125-.660156-.625v-.167969c0 .347656.296874.625.660156.625h12.570312c.367188 0 .660156-.277344.660156-.625v.167969c0 .34375-.292968.625-.660156.625zm0 0" fill-opacity=".235294"/><path d="m52.869951-147.506445h402.211591c11.748878 0 21.122983 8.99914 21.122983 19.99809v340.967439c0 11.123938-9.374105 19.99809-21.122983 19.99809h-402.211591c-11.62389 0-21.122983-8.874152-21.122983-19.99809v-340.967439c0-10.99895 9.499093-19.99809 21.122983-19.99809zm0 0" fill="none" stroke="#212121" stroke-linecap="round" stroke-width="3" transform="matrix(.031253 0 0 .031253 0 6.719392)"/><path d="m1.984375 2.8125c-.183594 0-.332031.148438-.332031.332031v.121094c0-.179687.148437-.328125.332031-.328125h11.90625c.183594 0 .332031.148438.332031.328125v-.121094c0-.183593-.148437-.332031-.332031-.332031zm0 0" fill-opacity=".235294"/><path d="m1.984375 13.523438c-.183594 0-.332031-.148438-.332031-.328126v-.125c0 .183594.148437.328126.332031.328126h11.90625c.183594 0 .332031-.144532.332031-.328126v.125c0 .179688-.148437.328126-.332031.328126zm0 0" fill="#fff" fill-opacity=".588235"/><path d="m63.493937-126.383462h380.963619c5.874439 0 10.623986 4.749546 10.623986 10.623985v317.469683c0 5.874439-4.749547 10.623986-10.623986 10.623986h-380.963619c-5.874439 0-10.623986-4.749547-10.623986-10.623986v-317.469683c0-5.874439 4.749547-10.623985 10.623986-10.623985zm0 0" fill="none" stroke="#212121" stroke-linecap="round" stroke-linejoin="round" stroke-width="3" transform="matrix(.031253 0 0 .031253 0 6.719392)"/><path d="m1.984375 2.769531c-.183594 0-.332031.148438-.332031.332031v2.683594c3.695312-.460937 7.546875-.707031 11.511718-.707031.355469 0 .707032.003906 1.058594.007813v-1.984376c0-.183593-.148437-.332031-.332031-.332031zm0 0" fill="#fff" fill-opacity=".078431"/><path d="m7.9375 5.417969c-1.464844 0-2.644531 1.179687-2.644531 2.644531s1.179687 2.648438 2.644531 2.648438 2.648438-1.183594 2.648438-2.648438-1.183594-2.644531-2.648438-2.644531zm0 .992187c.917969 0 1.65625.738282 1.65625 1.652344 0 .917969-.738281 1.65625-1.65625 1.65625-.914062 0-1.652344-.738281-1.652344-1.65625 0-.914062.738282-1.652344 1.652344-1.652344zm0 0" fill="#fafafa" fill-opacity=".196078"/><path d="m7.9375 5.417969c-1.464844 0-2.644531 1.179687-2.644531 2.644531s1.179687 2.648438 2.644531 2.648438 2.648438-1.183594 2.648438-2.648438h-.992188c0 .917969-.738281 1.65625-1.65625 1.65625-.914062 0-1.652344-.738281-1.652344-1.65625 0-.914062.738282-1.652344 1.652344-1.652344zm0 0" fill="url(#j)"/><path d="m7.9375 5.417969c-1.464844 0-2.644531 1.179687-2.644531 2.644531v.082031c.042969-1.425781 1.207031-2.5625 2.644531-2.5625s2.601562 1.136719 2.644531 2.5625c0-.027343.003907-.054687.003907-.082031 0-1.464844-1.183594-2.644531-2.648438-2.644531zm-1.652344 2.726562v.042969.042969c0 .914062.738282 1.652343 1.652344 1.652343.917969 0 1.65625-.738281 1.65625-1.652343 0-.03125-.003906-.058594-.003906-.085938-.042969.878907-.761719 1.574219-1.652344 1.574219-.886719 0-1.609375-.695312-1.652344-1.574219zm0 0" fill="#fff" fill-opacity=".470588"/><path d="m7.9375 10.875c-1.464844 0-2.644531-1.179688-2.644531-2.644531 0-.03125 0-.058594 0-.085938.042969 1.429688 1.207031 2.566407 2.644531 2.566407s2.601562-1.136719 2.644531-2.5625c0 .027343.003907.054687.003907.082031 0 1.464843-1.183594 2.644531-2.648438 2.644531zm-1.652344-2.730469c0-.011719 0-.023437 0-.039062 0-.011719 0-.027344 0-.042969 0-.914062.738282-1.652344 1.652344-1.652344.917969 0 1.65625.738282 1.65625 1.652344 0 .027344-.003906.054688-.003906.082031-.042969-.875-.761719-1.570312-1.652344-1.570312-.886719 0-1.609375.695312-1.652344 1.570312zm0 0" fill-opacity=".235294"/><path d="m253.975747-41.641555c-46.870525 0-84.61692 37.746395-84.61692 84.61692 0 46.870524 37.746395 84.741907 84.61692 84.741907 46.870524 0 84.741907-37.871383 84.741907-84.741907 0-46.870525-37.871383-84.61692-84.741907-84.61692zm0 31.746968c29.372195 0 52.994939 23.622745 52.994939 52.869952 0 29.372195-23.622744 52.994939-52.994939 52.994939-29.247208 0-52.869952-23.622744-52.869952-52.994939 0-29.247207 23.622744-52.869952 52.869952-52.869952zm0 0" fill="none" stroke="#212121" stroke-width="3" transform="matrix(.031253 0 0 .031253 0 6.719392)"/></svg>

<?xml version="1.0" encoding="UTF-8"?>
<svg xmlns="http://www.w3.org/2000/svg" xmlns:xlink="http://www.w3.org/1999/xlink" width="16px" height="16px" viewBox="0 0 16 16" version="1.1">
<defs>
<linearGradient id="linear0" gradientUnits="userSpaceOnUse" x1="254" y1="233.5" x2="254" y2="254.666672" gradientTransform="matrix(0.031253,0,0,0.031253,-0.330766,6.719392)">
<stop offset="0" style="stop-color:rgb(0%,0%,0%);stop-opacity:0.27451;"/>
<stop offset="1" style="stop-color:rgb(0%,0%,0%);stop-opacity:0;"/>
</linearGradient>
<radialGradient id="radial0" gradientUnits="userSpaceOnUse" cx="450.908936" cy="189.579361" fx="450.908936" fy="189.579361" r="21.166656" gradientTransform="matrix(0.0000000870852,-0.0390662,-0.0703192,-0.0000000507693,26.726844,31.797666)">
<stop offset="0" style="stop-color:rgb(0%,0%,0%);stop-opacity:0.313726;"/>
<stop offset="0.222222" style="stop-color:rgb(0%,0%,0%);stop-opacity:0.27451;"/>
<stop offset="1" style="stop-color:rgb(0%,0%,0%);stop-opacity:0;"/>
</radialGradient>
<radialGradient id="radial1" gradientUnits="userSpaceOnUse" cx="450.908936" cy="189.579361" fx="450.908936" fy="189.579361" r="21.166656" gradientTransform="matrix(-0.0000000870852,0.0390662,0.0703192,0.0000000507693,-10.850327,-3.763739)">
<stop offset="0" style="stop-color:rgb(0%,0%,0%);stop-opacity:0.313726;"/>
<stop offset="0.222222" style="stop-color:rgb(0%,0%,0%);stop-opacity:0.27451;"/>
<stop offset="1" style="stop-color:rgb(0%,0%,0%);stop-opacity:0;"/>
</radialGradient>
<radialGradient id="radial2" gradientUnits="userSpaceOnUse" cx="450.908936" cy="189.579361" fx="450.908936" fy="189.579361" r="21.166656" gradientTransform="matrix(-0.0000000870852,-0.0390662,0.0703192,-0.0000000507693,-10.850327,31.797666)">
<stop offset="0" style="stop-color:rgb(0%,0%,0%);stop-opacity:0.313726;"/>
<stop offset="0.222222" style="stop-color:rgb(0%,0%,0%);stop-opacity:0.27451;"/>
<stop offset="1" style="stop-color:rgb(0%,0%,0%);stop-opacity:0;"/>
</radialGradient>
<radialGradient id="radial3" gradientUnits="userSpaceOnUse" cx="450.908936" cy="189.579361" fx="450.908936" fy="189.579361" r="21.166656" gradientTransform="matrix(0.0000000870852,0.0390662,-0.0703192,0.0000000507693,26.726843,-3.76374)">
<stop offset="0" style="stop-color:rgb(0%,0%,0%);stop-opacity:0.313726;"/>
<stop offset="0.222222" style="stop-color:rgb(0%,0%,0%);stop-opacity:0.27451;"/>
<stop offset="1" style="stop-color:rgb(0%,0%,0%);stop-opacity:0;"/>
</radialGradient>
<linearGradient id="linear1" gradientUnits="userSpaceOnUse" x1="306.752655" y1="-16.485477" x2="305.954529" y2="-141.414581" gradientTransform="matrix(0.0360368,0,0,0.0953132,-2.454603,15.588246)">
<stop offset="0" style="stop-color:rgb(69.01961%,74.509805%,77.254903%);stop-opacity:1;"/>
<stop offset="1" style="stop-color:rgb(81.176472%,84.705883%,86.274511%);stop-opacity:1;"/>
</linearGradient>
<linearGradient id="linear2" gradientUnits="userSpaceOnUse" x1="254" y1="233.5" x2="254" y2="-147.5" gradientTransform="matrix(0.031253,0,0,0.031253,0,6.719392)">
<stop offset="0" style="stop-color:rgb(36.078432%,41.960785%,75.294119%);stop-opacity:1;"/>
<stop offset="1" style="stop-color:rgb(47.450981%,52.549022%,79.607844%);stop-opacity:1;"/>
</linearGradient>
<linearGradient id="linear3" gradientUnits="userSpaceOnUse" x1="640" y1="975.117188" x2="1280" y2="975.117188" gradientTransform="matrix(0.00826902,0,0,0.00826902,0,0)">
<stop offset="0" style="stop-color:rgb(69.01961%,74.509805%,77.254903%);stop-opacity:1;"/>
<stop offset="1" style="stop-color:rgb(81.176472%,84.705883%,86.274511%);stop-opacity:1;"/>
</linearGradient>
</defs>
<g id="surface1">
<path style=" stroke:none;fill-rule:nonzero;fill:url(#linear0);" d="M 2.316406 14.054688 L 13.5625 14.054688 L 13.5625 14.679688 L 2.316406 14.679688 Z M 2.316406 14.054688 "/>
<path style=" stroke:none;fill-rule:nonzero;fill:url(#radial0);" d="M 13.5625 14.015625 L 14.882812 14.015625 L 14.882812 13.355469 L 13.5625 13.355469 Z M 13.5625 14.015625 "/>
<path style=" stroke:none;fill-rule:nonzero;fill:url(#radial1);" d="M 2.316406 14.015625 L 0.992188 14.015625 L 0.992188 14.679688 L 2.316406 14.679688 Z M 2.316406 14.015625 "/>
<path style=" stroke:none;fill-rule:nonzero;fill:url(#radial2);" d="M 2.316406 14.015625 L 0.992188 14.015625 L 0.992188 13.355469 L 2.316406 13.355469 Z M 2.316406 14.015625 "/>
<path style=" stroke:none;fill-rule:nonzero;fill:url(#radial3);" d="M 13.5625 14.015625 L 14.882812 14.015625 L 14.882812 14.679688 L 13.5625 14.679688 Z M 13.5625 14.015625 "/>
<path style=" stroke:none;fill-rule:nonzero;fill:url(#linear1);" d="M 1.652344 2.109375 L 14.222656 2.109375 C 14.589844 2.109375 14.882812 2.390625 14.882812 2.734375 L 14.882812 13.390625 C 14.882812 13.738281 14.589844 14.015625 14.222656 14.015625 L 1.652344 14.015625 C 1.289062 14.015625 0.992188 13.738281 0.992188 13.390625 L 0.992188 2.734375 C 0.992188 2.390625 1.289062 2.109375 1.652344 2.109375 Z M 1.652344 2.109375 "/>
<path style=" stroke:none;fill-rule:nonzero;fill:url(#linear2);" d="M 1.984375 2.769531 L 13.890625 2.769531 C 14.074219 2.769531 14.222656 2.917969 14.222656 3.101562 L 14.222656 13.023438 C 14.222656 13.207031 14.074219 13.355469 13.890625 13.355469 L 1.984375 13.355469 C 1.800781 13.355469 1.652344 13.207031 1.652344 13.023438 L 1.652344 3.101562 C 1.652344 2.917969 1.800781 2.769531 1.984375 2.769531 Z M 1.984375 2.769531 "/>
<path style=" stroke:none;fill-rule:nonzero;fill:rgb(100%,100%,100%);fill-opacity:0.588235;" d="M 1.652344 2.109375 C 1.289062 2.109375 0.992188 2.386719 0.992188 2.734375 L 0.992188 2.898438 C 0.992188 2.554688 1.289062 2.273438 1.652344 2.273438 L 14.222656 2.273438 C 14.589844 2.273438 14.882812 2.554688 14.882812 2.898438 L 14.882812 2.734375 C 14.882812 2.386719 14.589844 2.109375 14.222656 2.109375 Z M 1.652344 2.109375 "/>
<path style=" stroke:none;fill-rule:nonzero;fill:rgb(0%,0%,0%);fill-opacity:0.235294;" d="M 1.652344 14.023438 C 1.289062 14.023438 0.992188 13.742188 0.992188 13.398438 L 0.992188 13.230469 C 0.992188 13.578125 1.289062 13.855469 1.652344 13.855469 L 14.222656 13.855469 C 14.589844 13.855469 14.882812 13.578125 14.882812 13.230469 L 14.882812 13.398438 C 14.882812 13.742188 14.589844 14.023438 14.222656 14.023438 Z M 1.652344 14.023438 "/>
<path style="fill:none;stroke-width:3;stroke-linecap:round;stroke-linejoin:miter;stroke:rgb(12.941177%,12.941177%,12.941177%);stroke-opacity:1;stroke-miterlimit:4;" d="M 52.869951 -147.506445 L 455.081542 -147.506445 C 466.83042 -147.506445 476.204525 -138.507305 476.204525 -127.508355 L 476.204525 213.459084 C 476.204525 224.583022 466.83042 233.457174 455.081542 233.457174 L 52.869951 233.457174 C 41.246061 233.457174 31.746968 224.583022 31.746968 213.459084 L 31.746968 -127.508355 C 31.746968 -138.507305 41.246061 -147.506445 52.869951 -147.506445 Z M 52.869951 -147.506445 " transform="matrix(0.031253,0,0,0.031253,0,6.719392)"/>
<path style=" stroke:none;fill-rule:nonzero;fill:rgb(0%,0%,0%);fill-opacity:0.235294;" d="M 1.984375 2.8125 C 1.800781 2.8125 1.652344 2.960938 1.652344 3.144531 L 1.652344 3.265625 C 1.652344 3.085938 1.800781 2.9375 1.984375 2.9375 L 13.890625 2.9375 C 14.074219 2.9375 14.222656 3.085938 14.222656 3.265625 L 14.222656 3.144531 C 14.222656 2.960938 14.074219 2.8125 13.890625 2.8125 Z M 1.984375 2.8125 "/>
<path style=" stroke:none;fill-rule:nonzero;fill:rgb(100%,100%,100%);fill-opacity:0.588235;" d="M 1.984375 13.523438 C 1.800781 13.523438 1.652344 13.375 1.652344 13.195312 L 1.652344 13.070312 C 1.652344 13.253906 1.800781 13.398438 1.984375 13.398438 L 13.890625 13.398438 C 14.074219 13.398438 14.222656 13.253906 14.222656 13.070312 L 14.222656 13.195312 C 14.222656 13.375 14.074219 13.523438 13.890625 13.523438 Z M 1.984375 13.523438 "/>
<path style="fill:none;stroke-width:3;stroke-linecap:round;stroke-linejoin:round;stroke:rgb(12.941177%,12.941177%,12.941177%);stroke-opacity:1;stroke-miterlimit:4;" d="M 63.493937 -126.383462 L 444.457556 -126.383462 C 450.331995 -126.383462 455.081542 -121.633916 455.081542 -115.759477 L 455.081542 201.710206 C 455.081542 207.584645 450.331995 212.334192 444.457556 212.334192 L 63.493937 212.334192 C 57.619498 212.334192 52.869951 207.584645 52.869951 201.710206 L 52.869951 -115.759477 C 52.869951 -121.633916 57.619498 -126.383462 63.493937 -126.383462 Z M 63.493937 -126.383462 " transform="matrix(0.031253,0,0,0.031253,0,6.719392)"/>
<path style=" stroke:none;fill-rule:nonzero;fill:rgb(100%,100%,100%);fill-opacity:0.0784314;" d="M 1.984375 2.769531 C 1.800781 2.769531 1.652344 2.917969 1.652344 3.101562 L 1.652344 5.785156 C 5.347656 5.324219 9.199219 5.078125 13.164062 5.078125 C 13.519531 5.078125 13.871094 5.082031 14.222656 5.085938 L 14.222656 3.101562 C 14.222656 2.917969 14.074219 2.769531 13.890625 2.769531 Z M 1.984375 2.769531 "/>
<path style=" stroke:none;fill-rule:nonzero;fill:rgb(98.039216%,98.039216%,98.039216%);fill-opacity:0.196078;" d="M 7.9375 5.417969 C 6.472656 5.417969 5.292969 6.597656 5.292969 8.0625 C 5.292969 9.527344 6.472656 10.710938 7.9375 10.710938 C 9.402344 10.710938 10.585938 9.527344 10.585938 8.0625 C 10.585938 6.597656 9.402344 5.417969 7.9375 5.417969 Z M 7.9375 6.410156 C 8.855469 6.410156 9.59375 7.148438 9.59375 8.0625 C 9.59375 8.980469 8.855469 9.71875 7.9375 9.71875 C 7.023438 9.71875 6.285156 8.980469 6.285156 8.0625 C 6.285156 7.148438 7.023438 6.410156 7.9375 6.410156 Z M 7.9375 6.410156 "/>
<path style=" stroke:none;fill-rule:nonzero;fill:url(#linear3);" d="M 7.9375 5.417969 C 6.472656 5.417969 5.292969 6.597656 5.292969 8.0625 C 5.292969 9.527344 6.472656 10.710938 7.9375 10.710938 C 9.402344 10.710938 10.585938 9.527344 10.585938 8.0625 L 9.59375 8.0625 C 9.59375 8.980469 8.855469 9.71875 7.9375 9.71875 C 7.023438 9.71875 6.285156 8.980469 6.285156 8.0625 C 6.285156 7.148438 7.023438 6.410156 7.9375 6.410156 Z M 7.9375 5.417969 "/>
<path style=" stroke:none;fill-rule:nonzero;fill:rgb(100%,100%,100%);fill-opacity:0.470588;" d="M 7.9375 5.417969 C 6.472656 5.417969 5.292969 6.597656 5.292969 8.0625 C 5.292969 8.089844 5.292969 8.117188 5.292969 8.144531 C 5.335938 6.71875 6.5 5.582031 7.9375 5.582031 C 9.375 5.582031 10.539062 6.71875 10.582031 8.144531 C 10.582031 8.117188 10.585938 8.089844 10.585938 8.0625 C 10.585938 6.597656 9.402344 5.417969 7.9375 5.417969 Z M 6.285156 8.144531 C 6.285156 8.160156 6.285156 8.171875 6.285156 8.1875 C 6.285156 8.199219 6.285156 8.214844 6.285156 8.230469 C 6.285156 9.144531 7.023438 9.882812 7.9375 9.882812 C 8.855469 9.882812 9.59375 9.144531 9.59375 8.230469 C 9.59375 8.199219 9.589844 8.171875 9.589844 8.144531 C 9.546875 9.023438 8.828125 9.71875 7.9375 9.71875 C 7.050781 9.71875 6.328125 9.023438 6.285156 8.144531 Z M 6.285156 8.144531 "/>
<path style=" stroke:none;fill-rule:nonzero;fill:rgb(0%,0%,0%);fill-opacity:0.235294;" d="M 7.9375 10.875 C 6.472656 10.875 5.292969 9.695312 5.292969 8.230469 C 5.292969 8.199219 5.292969 8.171875 5.292969 8.144531 C 5.335938 9.574219 6.5 10.710938 7.9375 10.710938 C 9.375 10.710938 10.539062 9.574219 10.582031 8.148438 C 10.582031 8.175781 10.585938 8.203125 10.585938 8.230469 C 10.585938 9.695312 9.402344 10.875 7.9375 10.875 Z M 6.285156 8.144531 C 6.285156 8.132812 6.285156 8.121094 6.285156 8.105469 C 6.285156 8.09375 6.285156 8.078125 6.285156 8.0625 C 6.285156 7.148438 7.023438 6.410156 7.9375 6.410156 C 8.855469 6.410156 9.59375 7.148438 9.59375 8.0625 C 9.59375 8.089844 9.589844 8.117188 9.589844 8.144531 C 9.546875 7.269531 8.828125 6.574219 7.9375 6.574219 C 7.050781 6.574219 6.328125 7.269531 6.285156 8.144531 Z M 6.285156 8.144531 "/>
<path style="fill:none;stroke-width:3;stroke-linecap:butt;stroke-linejoin:miter;stroke:rgb(12.941177%,12.941177%,12.941177%);stroke-opacity:1;stroke-miterlimit:4;" d="M 253.975747 -41.641555 C 207.105222 -41.641555 169.358827 -3.89516 169.358827 42.975365 C 169.358827 89.845889 207.105222 127.717272 253.975747 127.717272 C 300.846271 127.717272 338.717654 89.845889 338.717654 42.975365 C 338.717654 -3.89516 300.846271 -41.641555 253.975747 -41.641555 Z M 253.975747 -9.894587 C 283.347942 -9.894587 306.970686 13.728158 306.970686 42.975365 C 306.970686 72.34756 283.347942 95.970304 253.975747 95.970304 C 224.728539 95.970304 201.105795 72.34756 201.105795 42.975365 C 201.105795 13.728158 224.728539 -9.894587 253.975747 -9.894587 Z M 253.975747 -9.894587 " transform="matrix(0.031253,0,0,0.031253,0,6.719392)"/>
</g>
</svg>
